svgs/solid/laptop-mobile.svg

<svg xmlns="http://www.w3.org/2000/svg" viewBox="0 0 640 512"><!--! Font Awesome Pro 6.6.0 by @fontawesome - https://fontawesome.com License - https://fontawesome.com/license (Commercial License) Copyright 2024 Fonticons, Inc. --><path d="M128 0C92.7 0 64 28.7 64 64l0 224-44.8 0C8.6 288 0 296.6 0 307.2C0 349.6 34.4 384 76.8 384L352 384l0-96-224 0 0-224 320 0 0 32 64 0 0-32c0-35.3-28.7-64-64-64L128 0zM448 448l0-256 128 0 0 256-128 0zM384 176l0 288c0 26.5 21.5 48 48 48l160 0c26.5 0 48-21.5 48-48l0-288c0-26.5-21.5-48-48-48l-160 0c-26.5 0-48 21.5-48 48z"/></svg>

<svg xmlns="http://www.w3.org/2000/svg" viewBox="0 0 640 512"><!--! Font Awesome Pro 6.4.0 by @fontawesome - https://fontawesome.com License - https://fontawesome.com/license (Commercial License) Copyright 2023 Fonticons, Inc. --><path d="M128 0C92.7 0 64 28.7 64 64V288H19.2C8.6 288 0 296.6 0 307.2C0 349.6 34.4 384 76.8 384H352V288H128V64H448V96h64V64c0-35.3-28.7-64-64-64H128zM448 448V192H576V448H448zM384 176V464c0 26.5 21.5 48 48 48H592c26.5 0 48-21.5 48-48V176c0-26.5-21.5-48-48-48H432c-26.5 0-48 21.5-48 48z"/></svg>
